X:4
T:No.48 Germans
C:german
M:4/4
L:1/8
K:D
AFAd f2f2|AFAd f2 ef|gfed c2d2|
(3efe (3dcB A2FG|AFAdf2f2|AFAd f2ef|
gfed cABc|[1d2f2d2FG:|[2d2f2d2d2||
fgaf d2d2|fgaf d2ef|gfedc2d2|
(3efe (3dcB A2A2|fgaf d2d2|fgaf d2ef|
gfed cABc|[1d2f2d2d2:|[2d2f2d2FG||
ABAFA2de|fgfed2A2|BcdB ABAF|
G2E2E2FG|ABAFA2de|fgfe d2A2|
BcdB ABAG|[1F2D2D2FG:|[2F2D2D2g2||
fefg afde|fefga2f2|gabg fgaf|
edefe2FG|ABAFA2de|fgfed2A2|
BcdB ABAG|1F2D2D2g2:|2F2D2D2FG||
ABAF DEED|B,2B,2A,2DE|FEFA BAFD|
E2EDE2FG|ABAF DEED|B,2B,2A,2DE|
FEFD EDEF|[1D2DDD2FG:|[2D2DDD2FA||
B2BA BcdB|A2AB AFDF|AFAF BAFD|
E2ED E2FG|ABAF DEED|B,2B,2A,2DE|
FEFD EDEF|[1D2DDD2FA:|[2D2DDD2FG||
